img/svg_icons/insta.svg

<svg width="15" height="15" viewBox="0 0 15 15" fill="none" xmlns="http://www.w3.org/2000/svg">
<path fill-rule="evenodd" clip-rule="evenodd" d="M7.09509 0.807373H4.1131C3.51485 0.807373 2.98763 0.949438 2.59049 1.05645C2.5098 1.0782 2.43449 1.09849 2.36503 1.11586C1.8509 1.32151 1.43959 1.52717 1.1311 1.93848C0.719796 2.34978 0.514142 2.76109 0.308487 3.1724L0.308485 3.17241C0.102831 3.58372 0 4.20068 0 4.92047V7.90247V10.8845C0 11.4827 0.142066 12.0099 0.249083 12.4071C0.270826 12.4878 0.291122 12.5631 0.308485 12.6325C0.51414 13.1467 0.719794 13.558 1.1311 13.8665C1.54241 14.175 1.95372 14.4834 2.36503 14.6891C2.77634 14.8947 3.3933 14.9976 4.1131 14.9976H7.09509H10.0771C10.6753 14.9976 11.2026 14.8555 11.5997 14.7485C11.6804 14.7267 11.7557 14.7065 11.8252 14.6891C12.3393 14.4834 12.7506 14.2778 13.0591 13.8665C13.3676 13.4552 13.676 13.0438 13.8817 12.6325C14.0874 12.2212 14.1902 11.6043 14.1902 10.8845V7.90247V4.92047C14.1902 4.32222 14.0481 3.79501 13.9411 3.39786C13.9194 3.31718 13.8991 3.24186 13.8817 3.17241C13.676 2.65827 13.4704 2.24696 13.0591 1.93848C12.6478 1.52717 12.2365 1.32152 11.8252 1.11586L11.8252 1.11586C11.4138 0.910201 10.7969 0.807373 10.0771 0.807373H7.09509ZM11.8248 4.20056C11.8248 4.7147 11.4135 5.02319 11.0022 5.02319C10.5909 5.02319 10.1796 4.61187 10.1796 4.20056C10.1796 3.68643 10.5909 3.37794 11.0022 3.37794C11.4135 3.37794 11.8248 3.68643 11.8248 4.20056ZM7.09461 10.3701C5.75785 10.3701 4.72957 9.34179 4.72957 8.00503C4.72957 6.66827 5.75785 5.64 7.09461 5.64C8.43136 5.64 9.45964 6.66827 9.45964 8.00503C9.45964 9.34179 8.43136 10.3701 7.09461 10.3701ZM7.09461 4.30324C5.03806 4.30324 3.39282 5.94848 3.39282 8.00503C3.39282 10.0616 5.03806 11.7068 7.09461 11.7068C9.15116 11.7068 10.7964 10.0616 10.7964 8.00503C10.7964 5.94848 9.15116 4.30324 7.09461 4.30324Z" fill="#BABABA"/>
</svg>

<svg width="15" height="15" fill="none" xmlns="http://www.w3.org/2000/svg"><path fill-rule="evenodd" clip-rule="evenodd" d="M7.095.807H4.113c-.598 0-1.125.142-1.523.25l-.225.059c-.514.206-.925.411-1.234.822-.411.412-.617.823-.823 1.234C.103 3.584 0 4.201 0 4.92v5.964c0 .599.142 1.126.25 1.523l.058.226c.206.514.412.925.823 1.234.411.308.823.616 1.234.822.411.206 1.028.309 1.748.309h5.964c.598 0 1.126-.143 1.523-.25l.225-.059c.514-.206.926-.411 1.234-.822.309-.412.617-.823.823-1.235.205-.41.308-1.028.308-1.748V4.92c0-.598-.142-1.125-.249-1.522l-.06-.226c-.205-.514-.41-.925-.822-1.234-.411-.41-.822-.616-1.234-.822-.411-.206-1.028-.309-1.748-.309H7.095zm4.73 3.394a.811.811 0 01-.823.822c-.411 0-.822-.411-.822-.822 0-.515.41-.823.822-.823s.823.308.823.823zm-4.73 6.17c-1.337 0-2.365-1.03-2.365-2.366 0-1.337 1.028-2.365 2.365-2.365 1.336 0 2.365 1.028 2.365 2.365 0 1.337-1.029 2.365-2.365 2.365zm0-6.068a3.686 3.686 0 00-3.702 3.702 3.686 3.686 0 003.702 3.702 3.686 3.686 0 003.701-3.702 3.686 3.686 0 00-3.701-3.702z" fill="#BABABA"/></svg>
